X:2176
T:GDNIGHT4-  Good night an joy be wi' you a'.
O:england
S:Scot Musical Museum, #600, 1803/4
Q:1/4=80
L:1/4
M:C
K:Em
(B/A/)|GGD3/2 G/|EEe3/2 d/|(B/d/) (e/d/) (B/d/) (e/d/)|\
BGG B/A/|GGD3/2 G/|EEe3/2 d/|(B/d/) (e/d/) (B/d/) (e/d/)|\
BGG||B|A/G/ A/B/AG/E/|D/E/ G/A/ BA/G/|A3/2 B/ (c/B/) (c/d/)|\
eAA3/2 B/|c/B/ c/d/ed/c/|B/A/ B/c/ dc/B/|A/B/ d/e/ d/B/ A/B/|\
GEE|]
